src/assets/phone.svg

<svg width="30" height="30" viewBox="0 0 30 30" fill="none" xmlns="http://www.w3.org/2000/svg">
<path d="M26.4 26.4H3.59995C2.27995 26.4 1.19995 25.32 1.19995 24V8.4C1.19995 7.08 2.27995 6 3.59995 6H4.19995V7.2H3.59995C2.93995 7.2 2.39995 7.74 2.39995 8.4V24C2.39995 24.66 2.93995 25.2 3.59995 25.2H26.4C27.06 25.2 27.6 24.66 27.6 24V8.4C27.6 7.74 27.06 7.2 26.4 7.2H10.8V6H26.4C27.72 6 28.8 7.08 28.8 8.4V24C28.8 25.32 27.72 26.4 26.4 26.4Z" fill="#091242"/>
<path d="M22.7999 14.4H14.3999C14.0399 14.4 13.7999 14.16 13.7999 13.8V10.8C13.7999 10.44 14.0399 10.2 14.3999 10.2H22.7999C23.1599 10.2 23.3999 10.44 23.3999 10.8V13.8C23.3999 14.16 23.1599 14.4 22.7999 14.4ZM14.9999 13.2H22.1999V11.4H14.9999V13.2Z" fill="#091242"/>
<path d="M8.99998 24H5.99998C4.67998 24 3.59998 22.92 3.59998 21.6V6C3.59998 4.68 4.67998 3.6 5.99998 3.6H8.99998C10.32 3.6 11.4 4.68 11.4 6V21.6C11.4 22.92 10.32 24 8.99998 24ZM5.99998 4.8C5.33998 4.8 4.79998 5.34 4.79998 6V21.6C4.79998 22.26 5.33998 22.8 5.99998 22.8H8.99998C9.65998 22.8 10.2 22.26 10.2 21.6V6C10.2 5.34 9.65998 4.8 8.99998 4.8H5.99998Z" fill="#091242"/>
<path d="M16.8 15.6H15.6V16.8H16.8V15.6Z" fill="#091242"/>
<path d="M19.1999 15.6H17.9999V16.8H19.1999V15.6Z" fill="#091242"/>
<path d="M21.6 15.6H20.4V16.8H21.6V15.6Z" fill="#091242"/>
<path d="M16.8 18H15.6V19.2H16.8V18Z" fill="#091242"/>
<path d="M19.1999 18H17.9999V19.2H19.1999V18Z" fill="#091242"/>
<path d="M21.6 18H20.4V19.2H21.6V18Z" fill="#091242"/>
<path d="M16.8 20.4H15.6V21.6H16.8V20.4Z" fill="#091242"/>
<path d="M19.1999 20.4H17.9999V21.6H19.1999V20.4Z" fill="#091242"/>
<path d="M21.6 20.4H20.4V21.6H21.6V20.4Z" fill="#091242"/>
</svg>

<svg width="30" height="30" fill="none" xmlns="http://www.w3.org/2000/svg"><path d="M26.4 26.4H3.6c-1.32 0-2.4-1.08-2.4-2.4V8.4C1.2 7.08 2.28 6 3.6 6h.6v1.2h-.6c-.66 0-1.2.54-1.2 1.2V24c0 .66.54 1.2 1.2 1.2h22.8c.66 0 1.2-.54 1.2-1.2V8.4c0-.66-.54-1.2-1.2-1.2H10.8V6h15.6c1.32 0 2.4 1.08 2.4 2.4V24c0 1.32-1.08 2.4-2.4 2.4Z" fill="#091242"/><path d="M22.8 14.4h-8.4c-.36 0-.6-.24-.6-.6v-3c0-.36.24-.6.6-.6h8.4c.36 0 .6.24.6.6v3c0 .36-.24.6-.6.6ZM15 13.2h7.2v-1.8H15v1.8ZM9 24H6c-1.32 0-2.4-1.08-2.4-2.4V6c0-1.32 1.08-2.4 2.4-2.4h3c1.32 0 2.4 1.08 2.4 2.4v15.6c0 1.32-1.08 2.4-2.4 2.4ZM6 4.8c-.66 0-1.2.54-1.2 1.2v15.6c0 .66.54 1.2 1.2 1.2h3c.66 0 1.2-.54 1.2-1.2V6c0-.66-.54-1.2-1.2-1.2H6Zm10.8 10.8h-1.2v1.2h1.2v-1.2Zm2.4 0H18v1.2h1.2v-1.2Zm2.4 0h-1.2v1.2h1.2v-1.2ZM16.8 18h-1.2v1.2h1.2V18Zm2.4 0H18v1.2h1.2V18Zm2.4 0h-1.2v1.2h1.2V18Zm-4.8 2.4h-1.2v1.2h1.2v-1.2Zm2.4 0H18v1.2h1.2v-1.2Zm2.4 0h-1.2v1.2h1.2v-1.2Z" fill="#091242"/></svg>
